svgs/duotone/treasure-chest.svg

<svg xmlns="http://www.w3.org/2000/svg" viewBox="0 0 576 512"><!-- Font Awesome Pro 6.0.0-alpha2 by @fontawesome - https://fontawesome.com License - https://fontawesome.com/license (Commercial License) --><defs><style>.fa-secondary{opacity:.4}</style></defs><path d="M352 336C352 344.836 344.836 352 336 352H240C231.164 352 224 344.836 224 336V288H160V480H416V288H352V336ZM0 128V256H96V32C42.98 32 0 74.98 0 128ZM0 448C0 465.672 14.326 480 32 480H96V288H0V448ZM160 256H224V208C224 199.162 231.164 192 240 192H336C344.836 192 352 199.162 352 208V256H416V32H160V256ZM480 32V256H576V128C576 74.98 533.02 32 480 32ZM480 480H544C561.674 480 576 465.672 576 448V288H480V480Z" class="fa-secondary"/><path d="M96 256H160V32H96V256ZM96 480H160V288H96V480ZM416 480H480V288H416V480ZM416 32V256H480V32H416ZM336 192H240C231.164 192 224 199.162 224 208V336C224 344.836 231.164 352 240 352H336C344.836 352 352 344.836 352 336V208C352 199.162 344.836 192 336 192ZM304 304C304 312.836 296.836 320 288 320S272 312.836 272 304V240C272 231.162 279.164 224 288 224S304 231.162 304 240V304Z" class="fa-primary"/></svg>

<svg xmlns="http://www.w3.org/2000/svg" viewBox="0 0 576 512"><!--! Font Awesome Pro 6.3.0 by @fontawesome - https://fontawesome.com License - https://fontawesome.com/license (Commercial License) Copyright 2023 Fonticons, Inc. --><defs><style>.fa-secondary{opacity:.4}</style></defs><path class="fa-primary" d="M96 256h64V32H96V256zM96 480h64V288H96V480zM416 480h64V288h-64V480zM416 32v224h64V32H416zM336 192h-96C231.2 192 224 199.2 224 208v128C224 344.8 231.2 352 240 352h96c8.836 0 16-7.164 16-16v-128C352 199.2 344.8 192 336 192zM304 304c0 8.836-7.164 16-16 16S272 312.8 272 304v-64C272 231.2 279.2 224 288 224s16 7.162 16 16V304z"/><path class="fa-secondary" d="M352 336c0 8.836-7.164 16-16 16h-96C231.2 352 224 344.8 224 336V288H160v192h256V288h-64V336zM0 128v128h96V32C42.98 32 0 74.98 0 128zM0 448c0 17.67 14.33 32 32 32h64V288H0V448zM160 256h64V208C224 199.2 231.2 192 240 192h96C344.8 192 352 199.2 352 208V256h64V32H160V256zM480 32v224h96V128C576 74.98 533 32 480 32zM480 480h64c17.67 0 32-14.33 32-32V288h-96V480z"/></svg>
